templates/main/source/images/small/tools.svg

<?xml version="1.0" encoding="utf-8"?>
<svg width="24px" height="24px" viewBox="0 0 24 24" version="1.1" xmlns:xlink="http://www.w3.org/1999/xlink" xmlns="http://www.w3.org/2000/svg">
  <desc>Created with Lunacy</desc>
  <defs>
    <rect width="24" height="24" id="artboard_1" />
    <clipPath id="clip_1">
      <use xlink:href="#artboard_1" clip-rule="evenodd" />
    </clipPath>
  </defs>
  <g id="tools" clip-path="url(#clip_1)">
    <path d="M11.2941 0C17.5317 3.13475e-16 22.5882 5.05655 22.5882 11.2941C22.5882 17.5317 17.5317 22.5882 11.2941 22.5882C5.05655 22.5882 7.83687e-16 17.5317 0 11.2941C-7.83687e-16 5.05655 5.05655 1.09716e-15 11.2941 0Z" transform="translate(0.7058824 0.7058824)" id="Path" fill="#FFFFFF" stroke="none" />
    <path d="M0 12C0 18.6274 5.37258 24 12 24C15.1826 24 18.2348 22.7357 20.4853 20.4853C22.7357 18.2348 24 15.1826 24 12C24 5.37258 18.6274 0 12 0C5.37258 0 0 5.37258 0 12ZM1.41176 12C1.41176 6.15228 6.15228 1.41176 12 1.41176C14.8082 1.41176 17.5013 2.52731 19.487 4.51299C21.4727 6.49867 22.5882 9.19183 22.5882 12C22.5882 17.8477 17.8477 22.5882 12 22.5882C6.15228 22.5882 1.41176 17.8477 1.41176 12Z" id="Shape" fill="#8C0014" fill-rule="evenodd" stroke="none" />
    <g id="tools" transform="translate(4 4)">
      <g id="tools">
        <path d="M0 0L16 0L16 16L0 16L0 0Z" id="Rectangle-4" fill="none" stroke="none" />
        <path d="M11.8004 0.200219C11.716 0.123272 11.6131 0.0661152 11.5185 0L11.3721 0C11.3357 0.016859 11.2975 0.0307641 11.2631 0.0510093C10.6115 0.435236 9.95799 0.816293 9.31066 1.20732C9.10988 1.3286 9.08768 1.57226 9.24073 1.74969C9.28956 1.80627 9.34441 1.85778 9.40619 1.92166C8.58908 2.73529 7.77893 3.54198 6.97821 4.33932C7.30298 4.66154 7.63993 4.99588 7.99679 5.34995C8.80516 4.54461 9.61507 3.73773 10.4343 2.92151C10.5064 2.99502 10.5612 3.05364 10.6189 3.10941C10.8416 3.32471 11.0944 3.29473 11.2562 3.03066C11.6253 2.42806 11.9927 1.82445 12.3596 1.22048C12.4902 1.00537 12.4715 0.859785 12.2936 0.682453C12.1307 0.520204 11.9702 0.355216 11.8004 0.200219ZM3.31296 0.141158C3.13788 0.0841274 2.95182 0.0606697 2.77085 0.0217596L2.38196 0.0217596C2.25165 0.045945 2.12162 0.0719255 1.99093 0.0938306C1.82769 0.121145 1.70091 0.193313 1.64863 0.360452C1.59562 0.529968 1.67014 0.656645 1.78613 0.771701C2.09044 1.07345 2.39571 1.3743 2.69545 1.68056C3.02875 2.02114 2.99946 2.5155 2.63554 2.7933C2.38288 2.98618 1.99769 2.99348 1.75789 2.78115C1.49495 2.54839 1.2526 2.29242 1.00174 2.04608C0.906536 1.95261 0.815196 1.8551 0.717634 1.76418C0.483571 1.54607 0.164123 1.63888 0.0918871 1.94956C0.0519288 2.1215 0.0300295 2.29761 1.2105e-05 2.47184L1.2105e-05 2.69016C0.0164184 2.80141 0.0275746 2.91375 0.0500816 3.02376C0.242606 3.96548 0.790745 4.61478 1.68701 4.9573C2.20244 5.1543 2.73616 5.12917 3.26527 5.00138C3.37673 4.97448 3.44627 4.99638 3.52791 5.0783C4.80758 6.3626 6.09016 7.64402 7.37636 8.92182C7.46279 9.00764 7.4826 9.08098 7.45411 9.19496C7.35407 9.59505 7.32172 10.0018 7.40378 10.4083C7.69177 11.8344 9.10271 12.716 10.515 12.3578C10.8236 12.2796 10.917 11.9617 10.6978 11.729C10.6035 11.6289 10.5031 11.5346 10.4065 11.4366C10.1623 11.1888 9.90832 10.9496 9.6778 10.6898C9.46348 10.4481 9.4722 10.0678 9.6692 9.81464C9.94918 9.45496 10.4485 9.42838 10.7883 9.76069C11.1036 10.0691 11.4107 10.386 11.7267 10.6938C11.9606 10.9216 12.287 10.8249 12.3626 10.5101C12.4505 10.1441 12.4761 9.77459 12.3932 9.40516C12.1744 8.42974 11.5927 7.77424 10.6366 7.46752C10.1573 7.31379 9.66956 7.3494 9.18491 7.45944C9.1799 7.46058 9.17494 7.46173 9.17002 7.46287C9.09574 7.48013 9.03039 7.49532 8.95649 7.42111C7.65437 6.1135 6.34831 4.80977 5.04069 3.50764C4.97952 3.44672 4.97062 3.39459 4.99303 3.31648C5.12858 2.84408 5.14837 2.36602 5.00863 1.8935C4.7498 1.01821 4.18621 0.42561 3.31296 0.141158ZM0.288124 10.1241C0.125069 10.328 0.0558042 10.5713 0 10.8199L0 11.1588C0.00811037 11.1896 0.0179639 11.22 0.0241132 11.2512C0.0957024 11.6137 0.271564 11.9144 0.566394 12.1382C1.16714 12.5941 1.95564 12.5371 2.50213 11.993C3.63112 10.869 4.75592 9.74082 5.88222 8.61411C5.90091 8.59542 5.9166 8.5737 5.91849 8.57147C5.23116 7.88362 4.55139 7.20336 3.86911 6.52059C3.86337 6.52594 3.84826 6.53909 3.83412 6.55323C2.7047 7.68253 1.5752 8.81171 0.446555 9.94176C0.389782 9.99863 0.338408 10.0613 0.288124 10.1241ZM2.189 10.8403C2.10427 10.9251 2.01459 10.997 1.9363 10.9941C1.73925 10.9925 1.62919 10.9268 1.56257 10.7983C1.49594 10.6697 1.50574 10.5412 1.58987 10.4218C1.61295 10.3891 1.64159 10.36 1.66999 10.3315C2.37363 9.62708 3.07797 8.92327 3.78118 8.21834C3.89332 8.10591 4.0165 8.03638 4.18115 8.08349C4.42148 8.15228 4.52263 8.43132 4.37987 8.63662C4.35478 8.67272 4.32346 8.70499 4.29223 8.73625C3.5913 9.43778 2.88983 10.1387 2.189 10.8403Z" transform="translate(1.7777658 1.7777778)" id="Combined-Shape" fill="#8C0014" fill-rule="evenodd" stroke="none" />
      </g>
    </g>
  </g>
</svg>

<svg width="24" height="24" viewBox="0 0 24 24" xmlns:xlink="http://www.w3.org/1999/xlink" xmlns="http://www.w3.org/2000/svg"><defs><clipPath id="clip_1"><use xlink:href="#artboard_1" clip-rule="evenodd"/></clipPath><path id="artboard_1" d="M0 0h24v24H0z"/></defs><g id="tools" clip-path="url(#clip_1)"><path d="M11.294 0c6.238 0 11.294 5.057 11.294 11.294 0 6.238-5.056 11.294-11.294 11.294C5.057 22.588 0 17.532 0 11.294 0 5.057 5.057 0 11.294 0z" transform="translate(.706 .706)" id="Path" fill="#FFF" stroke="none"/><path d="M0 12c0 6.627 5.373 12 12 12a12 12 0 0012-12c0-6.627-5.373-12-12-12S0 5.373 0 12zm1.412 0C1.412 6.152 6.152 1.412 12 1.412A10.588 10.588 0 0122.588 12c0 5.848-4.74 10.588-10.588 10.588-5.848 0-10.588-4.74-10.588-10.588z" id="Shape" fill="#8C0014" fill-rule="evenodd" stroke="none"/><g id="tools" transform="translate(4 4)"><g id="tools" stroke="none"><path d="M0 0h16v16H0V0z" id="Rectangle-4" fill="none"/><path d="M11.8.2c-.084-.077-.187-.134-.282-.2h-.146c-.036.017-.075.03-.109.051-.652.384-1.305.765-1.952 1.156-.201.122-.223.365-.07.543.049.056.103.108.165.172L6.978 4.339l1.019 1.01 2.437-2.427c.072.073.127.132.185.187.223.216.475.186.637-.078.37-.603.737-1.207 1.104-1.81.13-.216.112-.361-.066-.539C12.13.52 11.97.355 11.8.2zM3.313.141c-.175-.057-.361-.08-.542-.12h-.389c-.13.025-.26.05-.391.073-.163.027-.29.1-.342.266-.053.17.021.297.137.412.304.301.61.602.91.909.333.34.303.834-.06 1.112-.253.193-.638.2-.878-.012-.263-.233-.505-.489-.756-.735-.095-.093-.187-.19-.284-.282-.234-.218-.554-.125-.626.186-.04.172-.062.348-.092.522v.218c.016.111.028.224.05.334.193.941.74 1.59 1.637 1.933.515.197 1.05.172 1.578.044.112-.027.181-.005.263.077a1072.71 1072.71 0 003.848 3.844c.087.086.107.159.078.273-.1.4-.132.807-.05 1.213a2.526 2.526 0 003.111 1.95c.309-.078.402-.396.183-.629-.095-.1-.195-.194-.292-.292-.244-.248-.498-.487-.728-.747-.215-.242-.206-.622-.009-.875.28-.36.78-.387 1.12-.054.315.308.622.625.938.933.234.228.56.13.636-.184.088-.366.113-.735.03-1.105-.219-.975-.8-1.63-1.756-1.937-.48-.154-.967-.119-1.452-.009l-.015.004c-.074.017-.14.032-.214-.042a1315.845 1315.845 0 00-3.915-3.913c-.061-.061-.07-.113-.048-.192.136-.472.155-.95.016-1.422C4.749 1.018 4.186.425 3.313.14zM.288 10.124c-.163.204-.232.447-.288.696v.339c.008.03.018.061.024.092.072.363.248.663.542.887.601.456 1.39.4 1.936-.145 1.13-1.124 2.254-2.252 3.38-3.379a.268.268 0 00.036-.043L3.87 6.521l-.035.032L.447 9.942c-.057.057-.109.12-.159.182zm1.901.716c-.085.085-.174.157-.253.154-.197-.002-.307-.067-.373-.196a.343.343 0 01.027-.376.72.72 0 01.08-.09l2.111-2.114c.112-.112.235-.182.4-.135a.36.36 0 01.199.554.753.753 0 01-.088.1L2.19 10.84z" transform="translate(1.778 1.778)" id="Combined-Shape" fill="#8C0014" fill-rule="evenodd"/></g></g></g></svg>
